src/lib/packages/icons/src/assets/filled/file-shield.svg

<svg xmlns="http://www.w3.org/2000/svg" width="24" height="24" fill="none"><path fill="currentColor" d="M14.75 6V3.75l4.5 4.5H17c-1.58 0-2.25-.67-2.25-2.25ZM20 9.75V18c0 2-1 3-3 3H8c-2 0-3-1-3-3V6c0-2 1-3 3-3h5.25v3c0 2.42 1.33 3.75 3.75 3.75h3Zm-4.5 2.366c-1.5-.389-2.25-.727-2.994-1.116-.756.389-1.505.727-3.006 1.167v1.944c0 2.333 1.875 3.5 3 3.889 1.125-.389 3-1.556 3-3.889v-1.995Z"/></svg>

<svg width="24" height="24" viewBox="0 0 24 24" fill="none" xmlns="http://www.w3.org/2000/svg">
<path d="M14.75 6V3.75L19.25 8.25H17C15.42 8.25 14.75 7.58 14.75 6ZM20 9.75V18C20 20 19 21 17 21H8C6 21 5 20 5 18V6C5 4 6 3 8 3H13.25V6C13.25 8.42 14.58 9.75 17 9.75H20ZM15.5 12.116C14 11.727 13.2501 11.389 12.5061 11C11.7501 11.389 11.001 11.727 9.5 12.167C9.5 12.565 9.5 13.696 9.5 14.111C9.5 16.444 11.375 17.611 12.5 18C13.625 17.611 15.5 16.444 15.5 14.111C15.5 13.682 15.5 12.534 15.5 12.116Z" fill="currentColor"/>
</svg>
